X: 3
P: Mrs. McPherson of Cluny (the Wild Geese)
C: J.Lowe
R: jig
M: 6/8
L: 1/8
K: A
|: e | "A"c2e ece | "D"fga "A"ecA | "A"c2e ecA | "E7"GAB Bcd \
| "A"c2e ece | "D"fga "A"ecA | "E"Bcd efg | "A"aec A2 :|
|| (3e/f/g/ || "A"a3 Ace | "D"aga "A"ecA | "Bm"dcB fdB | "E7"bge efg \
| "A"a3 Ace | "D"aga "A"ecA | "E"Bcd efg | "A"aec A3 ||
| "A"a3 Ace | "D"aga "A"ecA | "Bm"dcB fdB | "E7"bge efg \
| "A"a2e ece | "D"fga "A"ecA | "E"Bcd efg | "A"aec A2 |]
